X:251
T: Xin dongbeifeng
N: C1746
O: China,Liaoning
S: III, 246]
R: Xiaodiao, Dongbeigeng diao]
M: 2/4
L: 1/16
K: A
z2B2B2F2 | B2B6 |
e3cB4 | e3cB4 | B2eec2B2 | A2BAF4 |
B2eec2B2 | A2BAF4 |
z2e2e2e2 | e4c2g2 | f8- | f8 |
c2ffe2c2 | B4A2F2 | e6c2 | f8 |
B2BBB2e2 | B4A2F2 | B2B2B2B2 | e4F2F2 | E8 |
A4c4 | F2F2E4 | c2c2B2c2 | E8

@@@ Tune index: 6806
